lib/assets/icons/svg/outlined-action-copy.svg

<svg viewBox="0 0 24 24" xmlns="http://www.w3.org/2000/svg">
  <path  d="M 14.999 21.501 L 5.999 21.501 C 5.171 21.501 4.499 20.829 4.499 20.001 L 4.499 7.001 C 4.499 6.173 5.171 5.501 5.999 5.501 L 7.499 5.501 L 7.499 4.001 C 7.499 3.173 8.171 2.501 8.999 2.501 L 14.96 2.501 C 15.103 2.488 15.248 2.541 15.349 2.651 L 19.349 6.651 C 19.459 6.752 19.512 6.897 19.499 7.04 L 19.499 17.001 C 19.499 17.829 18.827 18.501 17.999 18.501 L 16.499 18.501 L 16.499 20.001 C 16.499 20.829 15.827 21.501 14.999 21.501 Z M 5.999 6.501 C 5.723 6.501 5.499 6.725 5.499 7.001 L 5.499 20.001 C 5.499 20.277 5.723 20.501 5.999 20.501 L 14.999 20.501 C 15.275 20.501 15.499 20.277 15.499 20.001 L 15.499 18.501 L 8.999 18.501 C 8.171 18.501 7.499 17.829 7.499 17.001 L 7.499 6.501 Z M 8.999 3.501 C 8.723 3.501 8.499 3.725 8.499 4.001 L 8.499 17.001 C 8.499 17.277 8.723 17.501 8.999 17.501 L 17.999 17.501 C 18.275 17.501 18.499 17.277 18.499 17.001 L 18.499 7.501 L 15.999 7.501 C 15.171 7.501 14.499 6.829 14.499 6.001 L 14.499 3.501 Z M 14.999 10.401 L 9.999 10.401 C 9.723 10.401 9.499 10.177 9.499 9.901 C 9.499 9.625 9.723 9.401 9.999 9.401 L 14.999 9.401 C 15.275 9.401 15.499 9.625 15.499 9.901 C 15.499 10.177 15.275 10.401 14.999 10.401 Z M 15.999 12.801 L 9.999 12.801 C 9.723 12.801 9.499 12.577 9.499 12.301 C 9.499 12.025 9.723 11.801 9.999 11.801 L 15.999 11.801 C 16.275 11.801 16.499 12.025 16.499 12.301 C 16.499 12.577 16.275 12.801 15.999 12.801 Z M 15.999 15.211 L 9.999 15.211 C 9.614 15.211 9.374 14.794 9.566 14.461 C 9.655 14.306 9.82 14.211 9.999 14.211 L 15.999 14.211 C 16.384 14.211 16.624 14.628 16.432 14.961 C 16.343 15.116 16.178 15.211 15.999 15.211 Z M 15.499 6.001 C 15.499 6.277 15.723 6.501 15.999 6.501 L 17.789 6.501 L 15.499 4.211 Z"/>
</svg>

<svg xmlns="http://www.w3.org/2000/svg" viewBox="0 0 24 24"><path d="M14.999 21.501h-9a1.5 1.5 0 0 1-1.5-1.5v-13a1.5 1.5 0 0 1 1.5-1.5h1.5v-1.5a1.5 1.5 0 0 1 1.5-1.5h5.961a.47.47 0 0 1 .389.15l4 4a.47.47 0 0 1 .15.389v9.961a1.5 1.5 0 0 1-1.5 1.5h-1.5v1.5a1.5 1.5 0 0 1-1.5 1.5zm-9-15a.5.5 0 0 0-.5.5v13a.5.5 0 0 0 .5.5h9a.5.5 0 0 0 .5-.5v-1.5h-6.5a1.5 1.5 0 0 1-1.5-1.5v-10.5zm3-3a.5.5 0 0 0-.5.5v13a.5.5 0 0 0 .5.5h9a.5.5 0 0 0 .5-.5v-9.5h-2.5a1.5 1.5 0 0 1-1.5-1.5v-2.5zm6 6.9h-5a.5.5 0 0 1 0-1h5a.5.5 0 0 1 0 1zm1 2.4h-6a.5.5 0 0 1 0-1h6a.5.5 0 0 1 0 1zm0 2.41h-6a.5.5 0 0 1 0-1h6a.5.5 0 0 1 0 1zm-.5-9.21a.5.5 0 0 0 .5.5h1.79l-2.29-2.29z"/></svg>
